X:940
T:Scallowa Lasses, Da
T:Da Scallowa Lasses
T:Scalloway Lasses, The
R:reel
O:Shetland
Z:id:hn-reel-940
M:C|
L:1/8
K:Ador
eaag egdB | c2ec gcec | eaag eged |1 cABG A4 :|2 cABG A2Ac :|
|: BE~E2 c2cA | dcde gfed | eaag eged |1 cABG A2Ac :|2 cABG A4 :| 

